!!!OTL: Rosengarten
!!!ARE: Europa, Mitteleuropa, Deutschland
!!!SCT: A0136
!!!YEM: Copyright 1995, estate of Helmut Schaffrath.
**kern
*ICvox
*Ivox
*M6/4
*k[b-]
*F:
{4c
=1
2f
4f
2a
4a
=2
2cc
4cc
2a}
{4cc
=3
2cc
4cc
2b-
4a
=4
2.g
2f}
{4c
=5
2f
4f
2a
4a
=6
2cc
4cc
2a}
{4cc
=7
2cc
4cc
2b-
4a
=8
2.g
2f}
{4cc
=9
2dd
4cc
2cc
4b-
=10
2.a
2g}
{4a
=11
2b-
4b-
4cc
4a
4b-
=12
[2.g
4g]
4r}
{4cc
=13
2dd
4cc
2cc
4a
=14
2f
4cc
2a}
{4cc
=15
2cc
4cc
4a
4b-
4g
=16
[2.f
4f]
4r}
==
!!!AGN: Romanze, Ballade, Lied
!! A0135B von Boehme in modernen Noten notiert.
!!!ONB: ESAC (Essen Associative Code) Database: ALTDEU
!!!AMT: compound duple
!!!AIN: vox
!!!EED: Helmut Schaffrath
!!!EEV: 1.0
*-
